X: 1
T: Hull's Reel
M: 4/4
L: 1/8
R: reel
K: Emaj
e \
| BEEc B2Bc | BE (3EEE cBGe | BE (3EEE B2GB | cBce fefg |
| BEEc B2Bc | BE (3EEE cBce | fgfe c2fg |1 eccB ceec :|2 eccB ceef |
|: gB (3BBB g2fe | fc (3ccc c2Bc | fc (3ccc c2Bc | eB (3BBB Bcef | gB (3BBB g2fe |
| fc (3ccc c2ce |1 fgfe c2fg | eccB ceef :|2 fgfe c2gf | eccB ceec |]
